X: 291
T: Impromptu	 Op. 36
C: Fr. Chopin
%%abc-version 2.0
%%abcx-abcm2ps-target-version 5.9.1 (29 Sep 2008)
%%abc-creator hum2abc beta
%%abcx-conversion-date 2021/10/03 11:24:01
%%abc-edited-by Mateusz Mrugas
%%abc-edited-by Jędrzej Mróz
%%abcx-initial-encoding-date 2019-09-15
%%humdrum-veritas 2405568006
%%humdrum-veritas-data 712229485
%%linebreak <none>
%%barnumbers 0
L: 1/8
M: C
N: Derived from 036-1a-TR-001.krn
P: Deuxième| Impromptu | POUR LE PIANO
Q: "Andantino"
%%staves {1 2}
V: 1 clef=treble
V: 2 clef=bass
K: F#
[V:1] z8 | 
[V:2] [F,,2F,,,2][D2C,2][C2E,2][B,2C,2] | 
[V:1] z8 | 
[V:2] [A,2F,2][D2C,2][C2E,2][B,2C,2] | 
[V:1] z8 | 
[V:2] [A,2F,2][B,2C,2][G,2E,2][A,2C,2] | 
[V:1] z8 | 
[V:2] x4G,4 & [F,2D,2][A,2C,2]E,2C,2 | 
[V:1] z8 | 
[V:2] x4G,4 & [F,2D,2][A,2C,2]E,2C,2 | 
[V:1] z8 | 
[V:2] F,4G,4 & D,2C,2E,2C,2 | 
[V:1] C2F2G2FG | 
[V:2] F,,,2[D2C,2][C2E,2][B,2C,2] | 
[V:1] A2B2c2G2 | 
[V:2] [A,2F,2][D2C,2][C2E,2][B,2C,2] | 
[V:1] A2B2G2A2 | 
[V:2] [A,2F,2][D2C,2][C2E,2][B,2C,2] | 
[V:1] F2D2C4- | 
[V:2] [A,2F,2][B,2C,2][G,2E,2][A,2-C,2] | 
[V:1] C2D2C4- | 
[V:2] [A,2F,2][B,2C,2][G,2E,2][A,2C,2] | 
[V:1] C4z4 | 
[V:2] x4G,4 & [F,2D,2][A,2C,2]E,2C,2 | 
[V:1] z2F2G2FG | 
[V:2] F,,,2[D2C,2][C2E,2][B,2C,2] | 
[V:1] ^A2^B4AF | 
[V:2] [A,2F,2]^^D2^B,,2D2 | 
[V:1] E2z2z d^B3/c/ | 
[V:2] E,,2[E2E,2][=E2^^F,2][D2^^G,2] | 
[V:1] A2z2z d^B3/c/ | 
[V:2] [C2A,2][E2E,2][=E2^^F,2][D2^^G,2] | 
[V:1] (5:4:20A/^B/A/^^G/A/A/a/=a/^g/=g/f/e/=e/d/=d/c/^B/^d/B/c/ | 
[V:2] [C2A,2][E2E,2][=E2^^F,2][D2^^G,2] | 
[V:1] A2z2z BG3/A/ | 
[V:2] [C2A,2][C2C,2][^B,2D,2][=B,2E,2] | 
[V:1] C2F2{/^^FG}!trill!G4{/FG} | 
[V:2] F,,2[D2C,2][C2E,2][B,2C,2] | 
[V:1] ^^GAB^B c^^cd=B | 
[V:2] [A,2F,2][D2C,2][C2E,2][=B,2C,2] | 
[V:1] A2B2G2AG | 
[V:2] [A,2F,2][D2C,2][C2E,2][B,2C,2] | 
[V:1] F2D2C4- | 
[V:2] [A,2F,2][B,2C,2][G,2E,2][A,2-C,2] | 
[V:1] C2D2C4- | 
[V:2] [A,2F,2][B,2C,2][G,2E,2][A,2C,2] | 
[V:1] C4z4 | 
[V:2] x4G,4 & [F,2D,2][A,2C,2]E,2C,2 | 
[V:1] A2B2c2d2 | 
[V:2] F,,2[G2F,2][F2A,2][=E2F,2] | 
[V:1] c2F2B2A2 | 
[V:2] B,,2[=E2F,2][D2B,2][C2D,2] | 
[V:1] G4z BG3/A/ | 
[V:2] G,,2[B,2=D,2][^E,2C,2]C,,2 | 
[V:1] F2z2z BG3/A/ | 
[V:2] F,,2[B,2=D,2][E,2C,2]C,,2 | 
[V:1] (23:16:23F/F/G/F/^E/F/F/f/e/=e/d/=d/c/=c/B/A/=A/G/B/B,/C/E/^A/ | 
[V:2] F,,2[B,2=D,2][^E,2C,2]C,,2 | 
[V:1] G2!accent![g2c2]-[gc][gc][c'3/e3/][g/c/] | 
[V:2] C,,,2[K:clef=treble][B2E2C2]-[BEC][BEC][B3/G3/C3/][B/G/C/] | 
[V:1] [gc]z/[a/c/][g2c2]-[gc][ac][fc][ac] | 
[V:2] [BEC]z/[B/F/C/][B2E2C2]-[BEC][BFC][BDC][BFC] | 
[V:1] [^^fc][gc][c'e][gc] f[dB][cG][AF] | 
[V:2] [B=EC][B^EC][BGC][BEC] [BFD][FB,][EC][K:clef=bass][CF,] | 
[V:1] [AF][^BF][c4E4][GC]z/[G/C/] | 
[V:2] [DD,][DG,][G,4C,4][B,E,C,]z/[B,/E,/C,/] | 
[V:1] [G2C2][G2C2]-[GC][GC][c3/E3/][G/C/] | 
[V:2] [B,2E,2C,2][B,2E,2C,2]-[B,E,C,][B,E,C,][B,3/G,3/C,3/][B,/E,/C,/] | 
[V:1] [GC]z/[A/C/][G2C2]-[GC][AC][FC][AC] | 
[V:2] [B,E,C,]z/[B,/F,/C,/][B,2E,2C,2]-[B,E,C,][B,F,C,][B,D,C,][B,F,C,] | 
[V:1] [^^FC][GC][c^E][GC] F[DB,][CG,][CA,] | 
[V:2] [B,=E,C,][B,^E,C,][B,G,C,][B,E,C,] [B,F,D,][F,B,,][E,C,][F,C,F,,] | 
[V:1] [DA,F,][ECG,][F2C2A,2]z [CB,E,][G3/C3/B,3/][F/C/A,/-] | 
[V:2] [D,D,,][C,C,,][F,,2F,,,2]z C,C,,3/[C,/F,,/]- | 
[V:1] [A2F2C2A,2]z2z [CB,E,]!fermata![G3/B,3/E,3/][F/F,/] ||  
[V:2] [F,2C,2F,,2]z2z C,,!fermata!C,,,2 ||  
[V:1]  [K:D] [F6A,6F,6][D2F,2] | 
[V:2]  [K:D] {/D,,,} D,,>A,,D,,>A,,, D,,>A,,D,,3/A,,,/ | 
[V:1] [A,4F,4]-[A,F,]>[A,E,][A,3/E,3/][A,/G,/] | 
[V:2] D,,>A,,D,,>A,,, C,,>A,,C,,3/A,,,/ | 
[V:1] [A,4F,4]-[A,F,]>[A,F,][D3/A,3/F,3/][F/D/A,/] | 
[V:2] D,,>A,,D,,>A,,, D,,>A,,D,,3/A,,,/ | 
[V:1] [F8D8A,8] | 
[V:2] D,,>A,,D,,>A,,, D,,>A,,D,,3/A,,,/ | 
[V:1] [G6E6A,6G,6][FDF,] z/ A,/ | 
[V:2] C,,>A,,C,,>A,,, C,,>A,,D,,3/A,,/ | 
[V:1] [A,G,]>G[G4G,4][F2F,2] & x2A,>EE2D3/A,/ | 
[V:2] C,,>A,,C,,>A,,, C,,>A,,D,,3/A,,/ | 
[V:1] [F2F,2][E4E,4]E3/D/ & B,>^B,C2A,2[G,2E,2] | 
[V:2] ^D,,>A,,E,,>A,, C,>E,,C,3/B,,/ | 
[V:1] [C2A,2E,2]B4[B3/D3/][A/G/E/] & x2G>F E>G B,3/C/ | 
[V:2] A,,,>A,,E,>F, G,>E,A,,3/A,,,/ | 
[V:1] [f6A6F6-][d2A2F2D2-] | 
[V:2] [D,D,,]>[A,A,,][D,D,,]>[A,,A,,,] [D,D,,]>[A,A,,][D,3/D,,3/][A,,/A,,,/] | 
[V:1] [A4-F4-D4A,4-][AFA,]>[AEA,][A3/E3/A,3/][A/G/A,/] | 
[V:2] [D,D,,]>[A,A,,][D,D,,]>[A,,A,,,] [C,C,,]>[A,,A,][C,3/C,,3/][A,,/A,,,/] | 
[V:1] [A4F4A,4]-[AFA,]>[AF][d3/A3/F3/D3/][f/A/F/] | 
[V:2] [D,D,,]>[A,A,,][D,D,,]>[A,,A,,,] [D,D,,]>[A,A,,][D,3/D,,3/][A,,/A,,,/] | 
[V:1] [f8d8A8F8] | 
[V:2] [D,D,,]>[A,A,,][D,D,,]>[A,,A,,,] [D,D,,]>[A,A,,][D,3/D,,3/][A,,/A,,,/] | 
[V:1] !arpeggio![a2f2=c2F2][b4f4c4][a2f2c2] | 
[V:2] [D,D,,]>[DD,][D,D,,]>[D,,D,,,] [D,D,,]>[DD,][D,3/D,,3/][D,,/D,,,/] | 
[V:1] [f2=c2A2F2]{/[fcAF]}[e4c4G4E4][d2c2F2D2] | 
[V:2] [D,D,,]>[DD,][D,D,,]>[D,,D,,,] [D,D,,]>[DD,][D,3/D,,3/][D,,/D,,,/] | 
[V:1] [d4B4G4D4]-[dBGD]>[dBD][g3/B3/G3/][d/B/D/] | 
[V:2] [G,,G,,,]z/[D/D,/][D,D,,]z/[D,,/D,,,/] [G,,G,,,]z/[D/D,/][D,D,,]z/[D,,/D,,,/] | 
[V:1] [b8g8d8B8] | 
[V:2] [G,,G,,,]z/[D/D,/][D,D,,]z/[D,,/D,,,/] [G,,G,,,]z/[D/D,/][D,D,,]z/[D,,/D,,,/] | 
[V:1] [b4d4B4][a2d2B2A2][g3/d3/B3/G3/][f/d/B/F/] | 
[V:2] [G,,G,,,]z/[D/D,/][D,D,,]z/[D,,/D,,,/] [G,,G,,,]z/[D/D,/][D,D,,]z/[D,,/D,,,/] | 
[V:1] [f4d4B4F4][e2d2B2E2]z2 | 
[V:2] [G,,G,,,]z/[D/D,/][D,D,,]z/[D,,/D,,,/] [G,,G,,,]z/[D/D,/][D,D,,]z/[D,,/D,,,/] | 
[V:1] x4d4 & [d'2e2d2][edE]>[edE] (5:4:5[eE][fF][eE][gG][fF] | 
[V:2] [G,,G,,,]z/[D/D,/][D,D,,]z/[D,,/D,,,/] [G,,G,,,]z/[D/D,/][D,D,,]z/[D,,/D,,,/] | 
[V:1] [d2B2]z2z4 & [fF][eE]x2x4 | 
[V:2] [G,,G,,,][DD,] [A,,A,,,][DD,] [_B,,_B,,,][DD,] [=B,,=B,,,][DD,] | 
[V:1] =F4G2FG & ^G,2E2D4 | 
[V:2] z4z2=B,,2 | 
[V:1] =F4G2FG & _A,2(3_EA,E_D4 ||  
[V:2] B,,6B,,,2 ||  
[V:1]  [K:F] F4G2FG | 
[V:2]  [K:F] A,2(3DC,D (3E,CC, (3B,E,B, & C,,2x2x2x2 | 
[V:1] A2B2c2G2 | 
[V:2] (3F,A,C, (3DC,D (3E,CC, (3B,E,B, | 
[V:1] A2B2G2A2 | 
[V:2] (3F,A,C, (3DC,D (3E,CC, (3B,E,B, | 
[V:1] F2D2C4- | 
[V:2] (3F,A,C, (3B,C,B, (3E,G,C, (3A,C,A, | 
[V:1] C2D2C4- | 
[V:2] (3F,A,C, (3B,C,B, (3E,G,C, (3A,C,A, | 
[V:1] C8- | 
[V:2] (3D,F,C, (3A,C,A, (3E,G,C, (3A,C,A, | 
[V:1] C2F2G2FG | 
[V:2] F,,2(3DC,D (3E,CC, (3B,E,B, | 
[V:1] A2=B2>A2 (3AGF | 
[V:2] (3F,A,=B,, (3^DF,D (3B,,A,F, (3DB,,A, | 
[V:1] E2z2z =Bc3/B/ | 
[V:2] E,,2(3EE,E (3^F,^DE, (3=D^G,D | 
[V:1] A2!accent!e2-ef (3e=Bc | 
[V:2] (3A,CE, (3EE,E (3^F,^DE, (3=D^G,D | 
[V:1] (3:2:6A/A/=B/A/^G/A/(3:2:6A/c'/=b/_b/a/^g/(3:2:6=g/^f/=f/e/^d/=d/(3:2:6^c/=c/B/d/B/c/ | 
[V:2] (3A,CE, (3EE,E (3^F,^DE, (3=D^G,D | 
[V:1] A2A4^G^F ||  
[V:2] (3A,CE, (3C!accent!D,C (3^F,CA,, (3CD,,^B, ||  
[V:1]  [K:F#] c2^^F2!trill!G2FG | 
[V:2]  [K:F#] C,,2(3DC,D (3E,CC, (3B,E,B, | 
[V:1] ^^GAB^B c^^cdB | 
[V:2] (3F,A,C, (3DC,D (3E,CC, (3B,E,B, | 
[V:1] (3AA,C (3GAB (3GB,C (3FGA | 
[V:2] (3F,,E,D, (3C,F,D, (3F,,E,D, (3C,B,E, | 
[V:1] (3FA,B, (3CA,D (3CG,A, (3B,G,D | 
[V:2] (3F,,E,D, (3C,F,C, (3F,,E,D, (3C,E,C, | 
[V:1] (3CA,B, (3CA,F (3GG,^B, (3F=B,G | 
[V:2] (3F,,E,D, (3C,F,C, (3D,,F,G,, (3C,,G,C, | 
[V:1] (3AA,F (3BCF (3cAB (3cad | 
[V:2] (3F,,E,D, (3C,A,C, (3F,,CF, (3C,FA, | 
[V:1] (3cCF (3cDF (3cE=B (3^Bcd | 
[V:2] (3D,A,F, (3G,,B,G, (3C,C^B, (3=B,^A,G, | 
[V:1] (3cCF (3ABd (3cAB (3cad | 
[V:2] (3F,A,F, (3C,CF, (3F,,CF, (3C,FA, | 
[V:1] (3cCF (3cDF (3cEe (3dcB | 
[V:2] (3D,A,F, (3G,,B,G, (3C,C^B, (3=B,A,G, | 
[V:1] A//B//A//^^G// A//B//c//d// e//f//^g//a// b//^b//c'//^^c'// d'//^c'//b//a// g//f//e//d// c//d//c//^B// c//^^c//d//B// | 
[V:2] F,2D,2E,C3- & F,[CA,]D,[FB,] E,B,A,G,- | 
[V:1] A//B//A//G// A//B//c//d// e//f//g//a// b//^b//c'//^^c'// e'//d'//^c'//b// a//g//f//e// d//c//^B//d// c//e//d//=B// | 
[V:2] C2D,2E,C3 & !accent!G,F,D,[FB,] E,B,A,G, | 
[V:1] A//B//^B//c// d//=e//f//g// a//b//c'//d'// =e'//^e'//f'//^^f'// g'//f'//=e'//d'// c'//b//a//g// f//g//f//^e// f//^^f//g//=e// | 
[V:2] F,2C,2x[=E3A,3] & F,[=EA,] C,[EA,]F,2G,F, | 
[V:1] d//=e//d//c// d//e//f//g// =a//b//c'//d'// =e'//^e'//f'//g'// a'//g'//f'//=e'// d'//c'//^b//=a// g//a//g//^^f// g//^^g//a//f// | 
[V:2] F,2B,,2^B,,2x2 & F,[DA,] B,,[DA,] ^B,,[FD]=A,G, | 
[V:1] e//f//e//d// e//f//g//a// b//c'//d'//e'// f'//g'//a'//b'// e''//d''//c''//^b'// =b'//a'//g'//f'// e'//d'//c'//b// a//g//f//e// | 
[V:2] C,2^^C,2D,2E,2 & C,[EB,] ^^C,[EB,] D,[FB,] E,[GCB,] | 
[V:1] d//c//^B//c// d//c//g//=g// f//e//f//e// =e//d//e//d// =d//c//d//c// =c//B//c//B// A//^^G//A//^G// ^^F//G//A//B// | 
[V:2] F,2B,,2=D,2C,2 & F,[FA,] B,,[G,F,] =D,[B,G,F,] C,[B,E,] | 
[V:1] A//B//A//^G// A//B//c//d// e//f//^g//a// b//^b//c'//^^c'// d'//c'//b//a// g//f//e//d// c//d//c//^B// c//^^c//d//B// | 
[V:2] F,2D,2xC3- & F,[CA,] D,[FB,] E,B,A,G, | 
[V:1] A//B//A//G// A//B//c//d// e//f//g//a// b//^b//c'//^^c'// e'//d'//^c'//b// a//g//f//e// d//c//^B//d// ^^c//e//d//=B// | 
[V:2] C2D,2xC3- & G,F, D,[FB,] E,B,A,G, | 
[V:1] A//B//^B//c// d//=e//f//g// a//b//c'//d'// =e'//^e'//f'//^^f'// g'//f'//=e'//d'// c'//b//a//g// f//g//f//^e// f//^^f//g//=e// | 
[V:2] C2<[E2A,2]z[E3A,3] & [C2F,2]E,D,C,2G,F, | 
[V:1] d//=e//d//c// d//e//f//g// =a//b//c'//d'// =e'//^e'//f'//g'// a'//g'//f'//=e'// d'//c'//^b//=a// g//a//g//^^f// g//^^g//^a//f// | 
[V:2] F,2B,,2^B,,2x2 & F,[D=A,] B,,[DA,] ^B,,[FD]A,G, | 
[V:1] e//f//e//d// e//f//g//a// b//c'//d'//e'// f'//g'//a'//b'// e''//d''//c''//^b'// =b'//a'//g'//f'// e'//d'//c'//b// b//a//g//f// | 
[V:2] C,2^^C,2D,2E,2 & C,[EB,] ^^C,[EB,] D,[FB,] E,[GCB,] | 
[V:1] e//d//^B//c// d//c//g//=g// f//e//f//e// =e//d//e//d// =d//c//d//c// =c//B//c//B// A//^^G//A//^G// ^^F//G//B//A// | 
[V:2] F,2B,,2=D,2C,2 & F,[FA,] B,,[G,F,] =D,[B,G,F,] C,[B,E,] | 
[V:1] A,//F//G//F// ^B,//F//e//d// E//c//d//c// =B//e//a//g// A//f//g//f// ^B//f//e'//d'// e//c'//d'//c'// b//e'//a'//g'// | 
[V:2] F,,[G,-D,G,,][G,C,][K:clef=treble] [GC][CF,] [GG,][GC] [gc] | 
[V:1] =e'//f'//d''//c''// a'//f'//e'//c'// a//f//=e//c// A//F//^E//=E// ^^C//D//^E//D// C//D//^c//B// ^C//F//B//^A// B,//^E//A//G// & x4x2^CB, | 
[V:2] [cF][K:clef=bass]!accent!F,2^^F, F,G, C,^^C, & x2<x2B,,2x2 | 
[V:1] A,//F//G//F// ^B,//F//e//d// E//c//d//c// =B//e//a//g// A//f//g//f// ^B//f//e'//d'// e//c'//d'//c'// =b//e'//a'//g'// | 
[V:2] D,[G,-G,,][G,C,][K:clef=treble] [GC][CF,] [GG,][GC] [gc] | 
[V:1] =e'//f'//d''//c''// a'//f'//e'//c'// a//f//=e//c// A//F//^E//=E// ^^C//D//^E//D// C//D//^c//B// C//F//B//^A// B,//^E//A//G// & x6CB, | 
[V:2] [cF][K:clef=bass] F,{/F,A,}G,F, ^^F,G,C,2- & x2<x2B,,2x2 | 
[V:1] A,//F//G//F// c//F//G//F// f//c//d//c// c'//f//g//f// f'//c'//d'//c'// d'//^b//d'//c'// e'//^^c'//e'//d'// f'//^^d'//f'//e'// | 
[V:2] [C,F,,] zz2[K:clef=treble]z [ac][=ad^B][gd=B] | 
[V:1] g'//f'//g'//f'// d'//^b//d'//c'// e'//^^c'//e'//d'// f'//^^d'//f'//e'// g'//f'//g'//f'// d'//b//d'//c'// e'//c'//e'//d'// f'//d'//f'//e'// | 
[V:2] [fcA][ac][=ad^B][g=d=B] [fcA][ac][=ad^B][g=d=B] | 
[V:1] g'//f'//g'//f'// g'//f'//g'//f'// g'//f'//g'//f'// g'//f'//g'//f'// g'//f'//g'//f'// g'//f'//e'//f'// a'//e'//g'//f'// c'//f'//a'//d''// | 
[V:2] [fcA] zz2z4 | 
[V:1] c''2[g2c2]-[gc][gc][c'3/e3/][g/c/] | 
[V:2] z2[B2E2C2]-[BEC][BEC][B3/F3/C3/][B/E/C/] | 
[V:1] [gc]z/[a/c/][g2c2]-[gc][ac][fc][ac] | 
[V:2] [BEC]z/[B/F/C/][B2E2C2]-[BEC][BFC][BDC][BFC] | 
[V:1] [^^fc][gc][c'e][gc] f[dB][cG][AF] | 
[V:2] [B=EC][B^EC][BGC][BEC] [BFD][FB,][EC][K:clef=bass][CF,] | 
[V:1] [AF][^BF][c4E4][GC]z/[G/-C/] | 
[V:2] [DD,][DG,][G,4C,4][B,E,C,]z/[B,/E,/C,/] | 
[V:1] [G2C2]!accent![G2C2]-[GC][GC][c3/^E3/][G/C/] | 
[V:2] [B,2E,2C,2][B,2E,2C,2]-[B,E,C,][B,E,C,][B,3/G,3/C,3/][B,/E,/C,/] | 
[V:1] [GC]z/[A/C/]!accent![G2C2]-[GC][AC][FC][AC] | 
[V:2] [B,E,C,]z/[B,/F,/C,/][B,2E,2C,2]-[B,E,C,][B,F,C,][B,D,C,][B,F,C,] | 
[V:1] [^^FC][GC][cE][GC] F[DB,][CG,][CA,] | 
[V:2] [B,=E,C,][B,^E,C,][B,G,C,][B,E,C,] [B,D,][F,B,,][E,C,][F,C,F,,] | 
[V:1] [DA,F,][ECG,][F2C2A,2]z [CB,E,][G3/C3/B,3/][F/C/A,/-] | 
[V:2] [D,D,,][C,C,,][F,,2F,,,2]z C,C,,3/[C,/F,,/]- | 
[V:1] [A2F2C2A,2]z2z2[F2F,2] | 
[V:2] [F,2C,2F,,2]z2z2[F,,2F,,,2] | 
[V:1] !fermata![f'8f8] |]  
[V:2] [K:clef=treble]!fermata![c8A8F8C8] |]
